Newaita-dark/apps/256/exaile.svg

<?xml version="1.0" encoding="UTF-8"?>
<svg xmlns="http://www.w3.org/2000/svg" xmlns:xlink="http://www.w3.org/1999/xlink" width="256pt" height="256pt" viewBox="0 0 256 256" version="1.1">
<defs>
<radialGradient id="radial0" gradientUnits="userSpaceOnUse" cx="450.908936" cy="189.579361" fx="450.908936" fy="189.579361" r="21.166656" gradientTransform="matrix(0.00000139336,-0.62506,-1.125108,-0.000000812309,356.185215,508.762635)">
<stop offset="0" style="stop-color:rgb(0%,0%,0%);stop-opacity:0.313725;"/>
<stop offset="0.222222" style="stop-color:rgb(0%,0%,0%);stop-opacity:0.27451;"/>
<stop offset="1" style="stop-color:rgb(0%,0%,0%);stop-opacity:0;"/>
</radialGradient>
<radialGradient id="radial1" gradientUnits="userSpaceOnUse" cx="450.908936" cy="189.579361" fx="450.908936" fy="189.579361" r="21.166656" gradientTransform="matrix(-0.00000139336,0.62506,1.125108,0.000000812309,-102.160949,-60.219856)">
<stop offset="0" style="stop-color:rgb(0%,0%,0%);stop-opacity:0.313725;"/>
<stop offset="0.222222" style="stop-color:rgb(0%,0%,0%);stop-opacity:0.27451;"/>
<stop offset="1" style="stop-color:rgb(0%,0%,0%);stop-opacity:0;"/>
</radialGradient>
<radialGradient id="radial2" gradientUnits="userSpaceOnUse" cx="450.908936" cy="189.579361" fx="450.908936" fy="189.579361" r="21.166656" gradientTransform="matrix(-0.00000139336,-0.62506,1.125108,-0.000000812309,-102.160949,508.762635)">
<stop offset="0" style="stop-color:rgb(0%,0%,0%);stop-opacity:0.313725;"/>
<stop offset="0.222222" style="stop-color:rgb(0%,0%,0%);stop-opacity:0.27451;"/>
<stop offset="1" style="stop-color:rgb(0%,0%,0%);stop-opacity:0;"/>
</radialGradient>
<radialGradient id="radial3" gradientUnits="userSpaceOnUse" cx="450.908936" cy="189.579361" fx="450.908936" fy="189.579361" r="21.166656" gradientTransform="matrix(0.00000139336,0.62506,-1.125108,0.000000812309,356.1852,-60.21986)">
<stop offset="0" style="stop-color:rgb(0%,0%,0%);stop-opacity:0.313725;"/>
<stop offset="0.222222" style="stop-color:rgb(0%,0%,0%);stop-opacity:0.27451;"/>
<stop offset="1" style="stop-color:rgb(0%,0%,0%);stop-opacity:0;"/>
</radialGradient>
<linearGradient id="linear0" gradientUnits="userSpaceOnUse" x1="255.323059" y1="233.5" x2="255.323044" y2="254.666656" gradientTransform="matrix(0.10688,0,0,0.500048,99.723089,107.510269)">
<stop offset="0" style="stop-color:rgb(0%,0%,0%);stop-opacity:0.27451;"/>
<stop offset="1" style="stop-color:rgb(0%,0%,0%);stop-opacity:0;"/>
</linearGradient>
<linearGradient id="linear1" gradientUnits="userSpaceOnUse" x1="254" y1="-168.666672" x2="254" y2="233.5" >
<stop offset="0" style="stop-color:rgb(68.235294%,83.529412%,50.588235%);stop-opacity:1;"/>
<stop offset="1" style="stop-color:rgb(61.176471%,80%,39.607843%);stop-opacity:1;"/>
</linearGradient>
</defs>
<g id="surface1">
<path style=" stroke:none;fill-rule:nonzero;fill:url(#radial0);" d="M 145.535156 224.269531 L 166.703125 224.269531 L 166.703125 213.6875 L 145.535156 213.6875 Z M 145.535156 224.269531 "/>
<path style=" stroke:none;fill-rule:nonzero;fill:url(#radial1);" d="M 108.488281 224.269531 L 87.320312 224.269531 L 87.320312 234.855469 L 108.488281 234.855469 Z M 108.488281 224.269531 "/>
<path style=" stroke:none;fill-rule:nonzero;fill:url(#radial2);" d="M 108.488281 224.269531 L 87.320312 224.269531 L 87.320312 213.6875 L 108.488281 213.6875 Z M 108.488281 224.269531 "/>
<path style=" stroke:none;fill-rule:nonzero;fill:url(#radial3);" d="M 145.535156 224.269531 L 166.703125 224.269531 L 166.703125 234.855469 L 145.535156 234.855469 Z M 145.535156 224.269531 "/>
<path style=" stroke:none;fill-rule:nonzero;fill:url(#linear0);" d="M 108.488281 221.625 L 145.535156 221.625 L 145.535156 234.855469 L 108.488281 234.855469 Z M 108.488281 221.625 "/>
<path style="fill-rule:nonzero;fill:url(#linear1);stroke-width:3;stroke-linecap:round;stroke-linejoin:miter;stroke:rgb(20%,20%,20%);stroke-opacity:1;stroke-miterlimit:4;" d="M 253.999182 -168.668487 C 365.058889 -168.668487 455.081542 -78.638022 455.081542 32.413873 C 455.081542 143.47358 365.058889 233.496233 253.999182 233.496233 C 142.947287 233.496233 52.916822 143.47358 52.916822 32.413873 C 52.916822 -78.638022 142.947287 -168.668487 253.999182 -168.668487 Z M 253.999182 -168.668487 " transform="matrix(0.500048,0,0,0.500048,0,107.510266)"/>
<path style=" stroke:none;fill-rule:nonzero;fill:rgb(0%,0%,0%);fill-opacity:0.196078;" d="M 127.011719 224.269531 C 71.308594 224.269531 26.460938 179.425781 26.460938 123.71875 C 26.460938 123.390625 26.464844 123.0625 26.46875 122.734375 C 26.992188 177.984375 71.636719 222.300781 127.011719 222.300781 C 182.390625 222.300781 227.03125 177.984375 227.558594 122.734375 C 227.558594 123.0625 227.5625 123.390625 227.5625 123.71875 C 227.5625 179.425781 182.71875 224.269531 127.011719 224.269531 Z M 127.011719 224.269531 "/>
<path style=" stroke:none;fill-rule:nonzero;fill:rgb(100%,100%,100%);fill-opacity:0.392157;" d="M 127.011719 23.167969 C 71.308594 23.167969 26.460938 68.015625 26.460938 123.71875 C 26.460938 124.046875 26.464844 124.375 26.46875 124.703125 C 26.992188 69.457031 71.636719 25.136719 127.011719 25.136719 C 182.390625 25.136719 227.03125 69.457031 227.558594 124.703125 C 227.558594 124.375 227.5625 124.046875 227.5625 123.71875 C 227.5625 68.015625 182.71875 23.167969 127.011719 23.167969 Z M 127.011719 23.167969 "/>
<path style=" stroke:none;fill-rule:nonzero;fill:rgb(12.941177%,12.941177%,12.941177%);fill-opacity:1;" d="M 127.011719 22.417969 C 70.902344 22.417969 25.710938 67.613281 25.710938 123.71875 C 25.710938 179.828125 70.902344 225.023438 127.011719 225.023438 C 183.121094 225.023438 228.3125 179.828125 228.3125 123.71875 C 228.3125 67.613281 183.121094 22.417969 127.011719 22.417969 Z M 127.011719 23.917969 C 182.316406 23.917969 226.8125 68.417969 226.8125 123.71875 C 226.8125 179.023438 182.316406 223.519531 127.011719 223.519531 C 71.710938 223.519531 27.210938 179.023438 27.210938 123.71875 C 27.210938 68.417969 71.710938 23.917969 127.011719 23.917969 Z M 127.011719 23.917969 "/>
<path style=" stroke:none;fill-rule:nonzero;fill:rgb(87.843138%,87.843138%,87.843138%);fill-opacity:1;" d="M 92.613281 123.71875 C 92.613281 130.179688 92.3125 166.320312 97.90625 169.550781 C 103.5 172.78125 134.648438 154.449219 140.242188 151.21875 C 145.835938 147.988281 177.289062 130.179688 177.289062 123.71875 C 177.289062 117.261719 145.835938 99.449219 140.242188 96.222656 C 134.648438 92.992188 103.5 74.660156 97.90625 77.886719 C 92.3125 81.117188 92.613281 117.261719 92.613281 123.71875 Z M 92.613281 123.71875 "/>
<path style=" stroke:none;fill-rule:nonzero;fill:rgb(100%,100%,100%);fill-opacity:1;" d="M 99.660156 77.507812 C 98.933594 77.515625 98.34375 77.636719 97.90625 77.886719 C 92.570312 80.96875 92.597656 113.722656 92.613281 122.363281 C 92.636719 110.890625 93.050781 83.335938 97.90625 80.535156 C 103.5 77.304688 134.648438 95.636719 140.242188 98.867188 C 145.488281 101.898438 173.496094 117.757812 176.941406 125.042969 C 177.167969 124.5625 177.289062 124.121094 177.289062 123.71875 C 177.289062 117.261719 145.835938 99.449219 140.242188 96.222656 C 135.085938 93.242188 108.210938 77.429688 99.660156 77.507812 Z M 92.613281 125.042969 C 92.609375 125.832031 92.609375 126.566406 92.613281 127.722656 C 92.613281 127.308594 92.613281 126.664062 92.613281 126.367188 C 92.613281 126.078125 92.613281 125.445312 92.613281 125.042969 Z M 92.613281 125.042969 "/>
<path style=" stroke:none;fill-rule:nonzero;fill:rgb(0%,0%,0%);fill-opacity:0.235294;" d="M 99.660156 169.929688 C 98.933594 169.925781 98.34375 169.804688 97.90625 169.550781 C 92.570312 166.46875 92.597656 133.71875 92.613281 125.078125 C 92.636719 136.546875 93.050781 164.105469 97.90625 166.90625 C 103.5 170.136719 134.648438 151.800781 140.242188 148.574219 C 145.488281 145.542969 173.496094 129.679688 176.941406 122.398438 C 177.167969 122.878906 177.289062 123.320312 177.289062 123.71875 C 177.289062 130.179688 145.835938 147.988281 140.242188 151.21875 C 135.085938 154.195312 108.210938 170.007812 99.660156 169.929688 Z M 92.613281 122.398438 C 92.609375 121.609375 92.609375 120.875 92.613281 119.714844 C 92.613281 120.132812 92.613281 120.777344 92.613281 121.074219 C 92.613281 121.363281 92.613281 121.996094 92.613281 122.398438 Z M 92.613281 122.398438 "/>
<path style=" stroke:none;fill-rule:nonzero;fill:rgb(12.941177%,12.941177%,12.941177%);fill-opacity:1;" d="M 99.175781 76.769531 C 99.789062 76.722656 100.46875 76.769531 101.207031 76.875 C 102.679688 77.082031 104.414062 77.5625 106.339844 78.226562 C 110.1875 79.5625 114.800781 81.660156 119.410156 83.960938 C 128.625 88.558594 137.832031 93.960938 140.617188 95.570312 C 143.40625 97.179688 152.683594 102.453125 161.277344 108.132812 C 165.570312 110.976562 169.695312 113.917969 172.777344 116.585938 C 174.316406 117.917969 175.597656 119.179688 176.515625 120.355469 C 177.433594 121.527344 178.039062 122.609375 178.039062 123.71875 C 178.039062 124.832031 177.433594 125.914062 176.515625 127.085938 C 175.597656 128.257812 174.316406 129.519531 172.777344 130.855469 C 169.695312 133.519531 165.570312 136.464844 161.277344 139.304688 C 152.683594 144.988281 143.40625 150.261719 140.617188 151.867188 C 137.832031 153.476562 128.625 158.878906 119.410156 163.476562 C 114.800781 165.777344 110.1875 167.878906 106.339844 169.210938 C 104.414062 169.878906 102.679688 170.355469 101.207031 170.566406 C 99.730469 170.777344 98.492188 170.757812 97.53125 170.199219 C 96.566406 169.644531 95.933594 168.582031 95.375 167.199219 C 94.820312 165.816406 94.367188 164.078125 93.980469 162.078125 C 93.210938 158.078125 92.726562 153.035156 92.414062 147.894531 C 91.789062 137.609375 91.863281 126.9375 91.863281 123.71875 C 91.863281 120.503906 91.789062 109.828125 92.414062 99.546875 C 92.726562 94.40625 93.210938 89.363281 93.980469 85.363281 C 94.367188 83.363281 94.820312 81.621094 95.375 80.238281 C 95.933594 78.859375 96.566406 77.792969 97.53125 77.238281 C 98.011719 76.960938 98.5625 76.816406 99.175781 76.769531 Z M 99.304688 78.285156 C 98.847656 78.320312 98.496094 78.410156 98.28125 78.539062 C 97.84375 78.789062 97.265625 79.5625 96.769531 80.800781 C 96.269531 82.039062 95.828125 83.703125 95.457031 85.644531 C 94.707031 89.53125 94.222656 94.53125 93.910156 99.636719 C 93.289062 109.851562 93.363281 120.480469 93.363281 123.71875 C 93.363281 126.960938 93.289062 137.589844 93.910156 147.800781 C 94.222656 152.90625 94.707031 157.910156 95.457031 161.792969 C 95.828125 163.738281 96.269531 165.402344 96.769531 166.640625 C 97.265625 167.878906 97.84375 168.648438 98.28125 168.902344 C 98.714844 169.152344 99.675781 169.269531 100.996094 169.082031 C 102.316406 168.894531 103.976562 168.441406 105.847656 167.796875 C 109.585938 166.5 114.160156 164.421875 118.738281 162.136719 C 127.894531 157.570312 137.0625 152.191406 139.867188 150.570312 C 142.675781 148.949219 151.917969 143.699219 160.449219 138.054688 C 164.714844 135.234375 168.804688 132.308594 171.792969 129.71875 C 173.289062 128.425781 174.511719 127.210938 175.335938 126.160156 C 176.15625 125.113281 176.539062 124.222656 176.539062 123.71875 C 176.539062 123.21875 176.15625 122.328125 175.335938 121.277344 C 174.511719 120.230469 173.289062 119.015625 171.792969 117.71875 C 168.804688 115.128906 164.714844 112.207031 160.449219 109.386719 C 151.917969 103.742188 142.675781 98.492188 139.867188 96.871094 C 137.0625 95.25 127.894531 89.871094 118.738281 85.304688 C 114.160156 83.019531 109.585938 80.941406 105.847656 79.644531 C 103.976562 78.996094 102.316406 78.546875 100.996094 78.359375 C 100.335938 78.265625 99.765625 78.246094 99.304688 78.285156 Z M 99.304688 78.285156 "/>
</g>
</svg>

<svg xmlns="http://www.w3.org/2000/svg" width="256pt" height="256pt" viewBox="0 0 256 256"><defs><radialGradient id="a" gradientUnits="userSpaceOnUse" cx="450.909" cy="189.579" fx="450.909" fy="189.579" r="21.167" gradientTransform="matrix(0 -.62506 -1.1251 0 356.185 508.763)"><stop offset="0" stop-opacity=".314"/><stop offset=".222" stop-opacity=".275"/><stop offset="1" stop-opacity="0"/></radialGradient><radialGradient id="b" gradientUnits="userSpaceOnUse" cx="450.909" cy="189.579" fx="450.909" fy="189.579" r="21.167" gradientTransform="matrix(0 .62506 1.1251 0 -102.16 -60.22)"><stop offset="0" stop-opacity=".314"/><stop offset=".222" stop-opacity=".275"/><stop offset="1" stop-opacity="0"/></radialGradient><radialGradient id="c" gradientUnits="userSpaceOnUse" cx="450.909" cy="189.579" fx="450.909" fy="189.579" r="21.167" gradientTransform="matrix(0 -.62506 1.1251 0 -102.16 508.763)"><stop offset="0" stop-opacity=".314"/><stop offset=".222" stop-opacity=".275"/><stop offset="1" stop-opacity="0"/></radialGradient><radialGradient id="d" gradientUnits="userSpaceOnUse" cx="450.909" cy="189.579" fx="450.909" fy="189.579" r="21.167" gradientTransform="matrix(0 .62506 -1.1251 0 356.185 -60.22)"><stop offset="0" stop-opacity=".314"/><stop offset=".222" stop-opacity=".275"/><stop offset="1" stop-opacity="0"/></radialGradient><linearGradient id="e" gradientUnits="userSpaceOnUse" x1="255.323" y1="233.5" x2="255.323" y2="254.667" gradientTransform="matrix(.10688 0 0 .50005 99.723 107.51)"><stop offset="0" stop-opacity=".275"/><stop offset="1" stop-opacity="0"/></linearGradient><linearGradient id="f" gradientUnits="userSpaceOnUse" x1="254" y1="-168.667" x2="254" y2="233.5"><stop offset="0" stop-color="#aed581"/><stop offset="1" stop-color="#9ccc65"/></linearGradient></defs><path d="M145.535 224.27h21.168v-10.583h-21.168zm0 0" fill="url(#a)"/><path d="M108.488 224.27H87.32v10.585h21.168zm0 0" fill="url(#b)"/><path d="M108.488 224.27H87.32v-10.583h21.168zm0 0" fill="url(#c)"/><path d="M145.535 224.27h21.168v10.585h-21.168zm0 0" fill="url(#d)"/><path d="M108.488 221.625h37.047v13.23h-37.047zm0 0" fill="url(#e)"/><path d="M254-168.668c111.059 0 201.082 90.03 201.082 201.082 0 111.06-90.023 201.082-201.083 201.082-111.052 0-201.082-90.022-201.082-201.082 0-111.052 90.03-201.082 201.082-201.082zm0 0" transform="matrix(.50005 0 0 .50005 0 107.51)" fill="url(#f)" stroke-width="3" stroke-linecap="round" stroke="#333"/><path d="M127.012 224.27c-55.703 0-100.551-44.844-100.551-100.551 0-.328.004-.656.008-.985.523 55.25 45.168 99.567 100.543 99.567 55.379 0 100.02-44.317 100.547-99.567 0 .329.004.657.004.985 0 55.707-44.844 100.55-100.551 100.55zm0 0" fill-opacity=".196"/><path d="M127.012 23.168c-55.703 0-100.551 44.848-100.551 100.55 0 .329.004.657.008.985.523-55.246 45.168-99.566 100.543-99.566 55.379 0 100.02 44.32 100.547 99.566 0-.328.004-.656.004-.984 0-55.703-44.844-100.551-100.551-100.551zm0 0" fill="#fff" fill-opacity=".392"/><path d="M127.012 22.418c-56.11 0-101.301 45.195-101.301 101.3 0 56.11 45.191 101.305 101.3 101.305 56.11 0 101.302-45.195 101.302-101.304 0-56.106-45.192-101.301-101.301-101.301zm0 1.5c55.304 0 99.8 44.5 99.8 99.8 0 55.305-44.496 99.802-99.8 99.802-55.301 0-99.801-44.497-99.801-99.801 0-55.301 44.5-99.801 99.8-99.801zm0 0" fill="#212121"/><path d="M92.613 123.719c0 6.46-.3 42.601 5.293 45.832 5.594 3.23 36.742-15.102 42.336-18.332 5.594-3.23 37.047-21.04 37.047-27.5 0-6.457-31.453-24.27-37.047-27.496-5.594-3.23-36.742-21.563-42.336-18.336-5.594 3.23-5.293 39.375-5.293 45.832zm0 0" fill="#e0e0e0"/><path d="M99.66 77.508c-.726.008-1.316.129-1.754.379-5.336 3.082-5.308 35.836-5.293 44.476.024-11.472.438-39.027 5.293-41.828 5.594-3.23 36.742 15.102 42.336 18.332 5.246 3.031 33.254 18.89 36.7 26.176.226-.48.347-.922.347-1.324 0-6.457-31.453-24.27-37.047-27.496-5.156-2.98-32.031-18.793-40.582-18.715zm-7.047 47.535c-.004.789-.004 1.523 0 2.68v-1.356-1.324zm0 0" fill="#fff"/><path d="M99.66 169.93c-.726-.004-1.316-.125-1.754-.38-5.336-3.081-5.308-35.831-5.293-44.472.024 11.469.438 39.027 5.293 41.828 5.594 3.23 36.742-15.105 42.336-18.332 5.246-3.031 33.254-18.894 36.7-26.176.226.48.347.922.347 1.32 0 6.462-31.453 24.27-37.047 27.5-5.156 2.977-32.031 18.79-40.582 18.712zm-7.047-47.532c-.004-.789-.004-1.523 0-2.683v2.683zm0 0" fill-opacity=".235"/><path d="M99.176 76.77c.613-.047 1.293 0 2.031.105 1.473.207 3.207.688 5.133 1.352 3.847 1.335 8.46 3.433 13.07 5.734 9.215 4.598 18.422 10 21.207 11.61 2.79 1.609 12.067 6.882 20.66 12.562 4.293 2.844 8.418 5.785 11.5 8.453 1.54 1.332 2.82 2.594 3.739 3.77.918 1.171 1.523 2.253 1.523 3.363 0 1.113-.605 2.195-1.523 3.367-.918 1.172-2.2 2.434-3.739 3.77-3.082 2.664-7.207 5.609-11.5 8.449-8.593 5.683-17.87 10.957-20.66 12.562-2.785 1.61-11.992 7.012-21.207 11.61-4.61 2.3-9.222 4.402-13.07 5.734-1.926.668-3.66 1.144-5.133 1.355-1.477.211-2.715.192-3.676-.367-.965-.554-1.597-1.617-2.156-3-.555-1.383-1.008-3.12-1.395-5.12-.77-4-1.253-9.044-1.566-14.184-.625-10.286-.55-20.958-.55-24.176 0-3.215-.075-13.89.55-24.172.313-5.14.797-10.184 1.566-14.184.387-2 .84-3.742 1.395-5.125.559-1.379 1.191-2.445 2.156-3 .48-.277 1.031-.422 1.645-.468zm.129 1.515c-.457.035-.809.125-1.024.254-.437.25-1.015 1.023-1.511 2.262-.5 1.238-.942 2.902-1.313 4.844-.75 3.886-1.234 8.886-1.547 13.992-.62 10.215-.547 20.843-.547 24.082 0 3.242-.074 13.87.547 24.082.313 5.105.797 10.11 1.547 13.992.371 1.945.813 3.61 1.313 4.848.496 1.238 1.074 2.007 1.511 2.261.434.25 1.395.368 2.715.18 1.32-.187 2.98-.64 4.852-1.285 3.738-1.297 8.312-3.375 12.89-5.66 9.157-4.567 18.325-9.946 21.13-11.567 2.808-1.62 12.05-6.87 20.581-12.515 4.266-2.82 8.356-5.746 11.344-8.336 1.496-1.293 2.719-2.508 3.543-3.559.82-1.047 1.203-1.937 1.203-2.441 0-.5-.383-1.39-1.203-2.442-.824-1.047-2.047-2.261-3.543-3.558-2.988-2.59-7.078-5.512-11.344-8.332-8.531-5.645-17.773-10.895-20.582-12.516-2.804-1.621-11.972-7-21.129-11.566-4.578-2.285-9.152-4.364-12.89-5.66-1.871-.649-3.532-1.098-4.852-1.286a7.668 7.668 0 0 0-1.691-.074zm0 0" fill="#212121"/></svg>
